assets/fc/fc-download.svg

<svg xmlns="http://www.w3.org/2000/svg" width="100%" height="100%" viewBox="0 0 48 48"><g fill="#1565C0"><path d="M24 37.1L13 24h22zM20 4h8v4h-8zM20 10h8v4h-8z"/><path d="M20 16h8v11h-8zM6 40h36v4H6z"/></g></svg>

<svg xmlns="http://www.w3.org/2000/svg" width="100%" height="100%" viewBox="0 0 48 48"><g fill="#1565C0"><path d="M24 37.1L13 24 35 24zM20 4H28V8H20zM20 10H28V14H20z"/><path d="M20 16H28V27H20zM6 40H42V44H6z"/></g></svg>
